X:545
T:The glen cottage 2
R:Polka
O:Ireland
B:Irish Traditional Music Session Tunes 2 n22
S:Irish Traditional Music Session Tunes 2 n22
Z:Transcription, chords:Mike Long
M:2/4
L:1/8
K:Bb
"Gm"BG GF|DG G2|"(Bb)"B>A GF|Bc d>c|\
"Gm"BG GF|DG G2|"(Dm)"d>c BA|[1 "Gm"G2 Gd/c/:|[2 "Gm"G2 Gc|]
|:"Gm"dg ga|gf dc|dg gf|g2 ga|\
"(Bb)"b2 a2|gf d>c|"(Dm)"dG G/A/B/c/|d2 d>c:|
